assets/oneplus/mono.svg

<svg viewBox="0 0 24 24" xmlns="http://www.w3.org/2000/svg"><path d="m0 3.74v20.26h20.26v-11.572h-2.256v9.317h-15.75v-15.75h9.318v-2.253zm18.004-3.74v3.74h-3.758v2.256h3.758v3.758h2.255v-3.758h3.741v-2.256h-3.758v-3.74zm-6.45 18.756v-9.894h-1.992c0 .682-.228 1.189-.577 1.504-.367.297-.91.437-1.556.437h-.245v1.625h2.133v6.31h2.237z"/></svg>

<svg xmlns="http://www.w3.org/2000/svg" viewBox="0 0 24 24"><path d="M0 3.74V24h20.26V12.428h-2.256v9.317H2.254V5.995h9.318V3.742zM18.004 0v3.74h-3.758v2.256h3.758v3.758h2.255V5.996H24V3.74h-3.758V0zm-6.45 18.756V8.862H9.562c0 .682-.228 1.189-.577 1.504-.367.297-.91.437-1.556.437h-.245v1.625h2.133v6.31h2.237z"/></svg>
